src/assets/img/search_book.svg

<svg width="178" height="130" viewBox="0 0 178 130" fill="none" xmlns="http://www.w3.org/2000/svg">
<path d="M163.796 103.75L155.787 101.173C136.94 95.1138 121.435 95.1138 102.599 101.173L89.0474 105.529L75.4963 101.173C56.6322 95.1096 41.1444 95.1096 22.295 101.175L14.2719 103.75C13.6366 103.954 12.9621 104.006 12.3034 103.9C11.6446 103.794 11.0201 103.534 10.4809 103.141C9.94167 102.748 9.50289 102.233 9.20031 101.638C8.89773 101.044 8.73992 100.386 8.73972 99.7186V13.9926C8.74226 13.0967 9.02853 12.2246 9.55746 11.5014C10.0864 10.7782 10.8308 10.2412 11.6839 9.96733L22.295 6.55743C41.1444 0.483667 56.6322 0.483667 75.4858 6.549L89.0369 10.9052L102.588 6.549C121.435 0.483667 136.927 0.483667 155.777 6.549L166.388 9.96733C167.243 10.2405 167.99 10.7784 168.52 11.5033C169.051 12.2283 169.337 13.1029 169.338 14.0011V99.7208C169.339 100.389 169.181 101.048 168.878 101.644C168.575 102.24 168.135 102.755 167.594 103.148C167.053 103.541 166.427 103.801 165.767 103.905C165.107 104.01 164.431 103.957 163.796 103.75Z" fill="white" stroke="#2F3645" stroke-width="3" stroke-miterlimit="10"/>
<path d="M89.0011 105.531V10.9052" stroke="#2F3645" stroke-width="3" stroke-miterlimit="10"/>
<path d="M157.581 23.0759L155.781 22.4963C137.075 16.4837 121.673 16.4394 103.018 22.3614L102.596 22.4963" stroke="#2F3645" stroke-width="3" stroke-miterlimit="10" stroke-linecap="round"/>
<path d="M157.581 33.6027L155.781 33.0232C137.075 27.0105 121.673 26.9663 103.018 32.8883L102.596 33.0232" stroke="#2F3645" stroke-width="3" stroke-miterlimit="10" stroke-linecap="round"/>
<path d="M157.581 45.8852L155.781 45.3056C137.075 39.293 121.673 39.2466 103.018 45.1686L102.596 45.3056" stroke="#2F3645" stroke-width="3" stroke-miterlimit="10" stroke-linecap="round"/>
<path d="M157.581 56.412L155.781 55.8324C137.071 49.8198 121.669 49.7734 103.014 55.6996L102.592 55.8366" stroke="#2F3645" stroke-width="3" stroke-miterlimit="10" stroke-linecap="round"/>
<path d="M76.0865 65.0421L74.2867 64.4626C55.5807 58.4499 40.1792 58.4036 21.5238 64.3256L21.1023 64.4626" stroke="#2F3645" stroke-width="3" stroke-miterlimit="10" stroke-linecap="round"/>
<path d="M76.0865 75.5691L74.2867 74.9896C55.5786 68.9769 40.1792 68.9306 21.5238 74.8526L21.1023 74.9896" stroke="#2F3645" stroke-width="3" stroke-miterlimit="10" stroke-linecap="round"/>
<path d="M76.0865 86.0959L74.2867 85.5163C55.5786 79.5142 40.1792 79.4573 21.5238 85.3793L21.1023 85.5163" stroke="#2F3645" stroke-width="3" stroke-miterlimit="10" stroke-linecap="round"/>
<path d="M157.581 101.755L163.798 103.75C164.433 103.955 165.107 104.006 165.766 103.9C166.425 103.794 167.049 103.534 167.588 103.141C168.127 102.748 168.566 102.233 168.868 101.638C169.17 101.044 169.328 100.386 169.328 99.7187V21.6113L172.816 22.646C174.712 23.2087 176 24.8378 176 26.6776V112.406C176 115.278 172.969 117.316 170.006 116.437L161.317 113.866C140.894 107.807 124.105 107.807 103.684 113.866L89.0011 118.222L74.3161 113.866C53.8946 107.807 37.1064 107.807 16.6849 113.866L7.99368 116.437C5.0432 117.316 2 115.278 2 112.406V26.6776C2 24.8378 3.28767 23.2087 5.1844 22.646L8.74394 21.5923V99.7208C8.74468 100.387 8.90272 101.044 9.20521 101.638C9.50769 102.232 9.94608 102.747 10.4847 103.139C11.0234 103.532 11.6471 103.792 12.3052 103.898C12.9632 104.004 13.637 103.954 14.2719 103.75L22.2803 101.173C41.1296 95.1139 56.6322 95.1139 75.471 101.173L89.0221 105.529L98.1222 102.604L102.573 101.173C121.42 95.1139 136.925 95.1139 155.762 101.173L157.581 101.755Z" stroke="#2F3645" stroke-width="3" stroke-miterlimit="10"/>
<path d="M172.66 119.68L155.486 95.6975C154.912 94.7998 154.048 94.1261 153.037 93.7886C152.027 93.4511 150.931 93.4703 149.933 93.8429L145.779 87.3371C151.311 82.8344 154.911 76.3863 155.842 69.3144C156.773 62.2424 154.964 55.0822 150.785 49.3014C146.607 43.5205 140.375 39.5568 133.368 38.2226C126.361 36.8884 119.109 38.2847 113.099 42.1255C107.088 45.9663 102.774 51.9605 101.041 58.8797C99.3076 65.7989 100.287 73.119 103.777 79.3396C107.267 85.5603 113.005 90.2104 119.813 92.3368C126.622 94.4633 133.986 93.905 140.396 90.7765L144.552 97.2802C143.795 98.0298 143.318 99.0161 143.2 100.075C143.082 101.134 143.33 102.201 143.903 103.099L161.075 127.084C161.74 128.124 162.791 128.857 163.996 129.123C165.201 129.388 166.463 129.164 167.503 128.5L171.244 126.112C172.285 125.447 173.018 124.396 173.284 123.189C173.55 121.983 173.325 120.721 172.66 119.68ZM108.858 77.9905C106.421 74.1772 105.169 69.727 105.262 65.2025C105.354 60.678 106.785 56.2824 109.375 52.5714C111.965 48.8605 115.598 46.0009 119.813 44.3541C124.028 42.7073 128.637 42.3473 133.057 43.3196C137.476 44.292 141.508 46.553 144.643 49.8168C147.778 53.0806 149.875 57.2006 150.668 61.6559C151.462 66.1112 150.917 70.7018 149.101 74.8472C147.286 78.9926 144.282 82.5067 140.47 84.9451C137.938 86.5648 135.111 87.6697 132.152 88.1968C129.193 88.7238 126.159 88.6627 123.223 88.0168C120.288 87.371 117.508 86.1531 115.043 84.4328C112.578 82.7124 110.476 80.5233 108.858 77.9905Z" fill="#2F3645"/>
<path d="M114.508 74.3973C115.922 74.3973 117.068 73.2509 117.068 71.8367C117.068 70.4225 115.922 69.2761 114.508 69.2761C113.094 69.2761 111.947 70.4225 111.947 71.8367C111.947 73.2509 113.094 74.3973 114.508 74.3973Z" fill="#2F3645"/>
<path d="M124.951 48.3235C126.846 48.032 128.777 48.0647 130.662 48.4205C131.039 48.4906 131.396 48.643 131.708 48.8668C132.019 49.0906 132.278 49.3803 132.465 49.7153C132.652 50.0503 132.762 50.4224 132.789 50.8051C132.816 51.1878 132.758 51.5716 132.62 51.9294C132.397 52.4974 131.983 52.9696 131.448 53.2637C130.914 53.5579 130.293 53.6555 129.695 53.5396C128.033 53.2245 126.323 53.2737 124.682 53.6838C123.042 54.0938 121.51 54.8549 120.192 55.9146C118.874 56.9743 117.801 58.3073 117.049 59.8216C116.296 61.336 115.881 62.9956 115.832 64.686C115.811 65.2924 115.579 65.8727 115.176 66.3264C114.774 66.78 114.225 67.0787 113.625 67.1707C113.246 67.2287 112.858 67.2022 112.491 67.0932C112.123 66.9842 111.783 66.7953 111.497 66.54C111.211 66.2848 110.984 65.9695 110.833 65.6166C110.683 65.2637 110.612 64.8819 110.626 64.4985C110.89 56.5427 116.826 49.5733 124.951 48.3235Z" fill="#2F3645"/>
<g opacity="0.7">
<path d="M38.5668 32.6135C44.2975 37.6201 53.3254 37.6543 59.0995 32.6881L59.1866 32.6135" stroke="#2F3645" stroke-width="3" stroke-miterlimit="10" stroke-linecap="round"/>
<path d="M29.0137 25.8356V34.0368" stroke="#2F3645" stroke-width="3" stroke-miterlimit="10" stroke-linecap="round"/>
<path d="M68.7397 25.8356V34.0368" stroke="#2F3645" stroke-width="3" stroke-miterlimit="10" stroke-linecap="round"/>
</g>
</svg>

<svg width="178" height="130" fill="none" xmlns="http://www.w3.org/2000/svg"><path d="m163.796 103.75-8.009-2.577c-18.847-6.06-34.352-6.06-53.188 0l-13.552 4.356-13.55-4.356c-18.865-6.063-34.353-6.063-53.202.002l-8.023 2.575a4.237 4.237 0 0 1-5.532-4.031V13.993a4.24 4.24 0 0 1 2.944-4.026l10.611-3.41C41.145.484 56.632.484 75.485 6.55l13.552 4.356 13.551-4.356c18.847-6.065 34.339-6.065 53.189 0l10.611 3.418a4.24 4.24 0 0 1 2.95 4.034v85.72a4.23 4.23 0 0 1-3.571 4.184 4.221 4.221 0 0 1-1.971-.155z" fill="#fff" stroke="#2F3645" stroke-width="3" stroke-miterlimit="10"/><path d="M89.001 105.531V10.905" stroke="#2F3645" stroke-width="3" stroke-miterlimit="10"/><path d="m157.581 23.076-1.8-.58c-18.706-6.012-34.108-6.057-52.763-.135l-.422.135M157.581 33.603l-1.8-.58c-18.706-6.013-34.108-6.057-52.763-.135l-.422.135M157.581 45.885l-1.8-.58c-18.706-6.012-34.108-6.058-52.763-.136l-.422.137M157.581 56.412l-1.8-.58c-18.71-6.012-34.112-6.059-52.767-.132l-.422.137M76.087 65.042l-1.8-.58c-18.706-6.012-34.108-6.058-52.763-.136l-.422.137M76.087 75.57l-1.8-.58c-18.708-6.013-34.108-6.06-52.763-.137l-.422.137M76.087 86.096l-1.8-.58c-18.708-6.002-34.108-6.059-52.763-.137l-.422.137" stroke="#2F3645" stroke-width="3" stroke-miterlimit="10" stroke-linecap="round"/><path d="m157.581 101.755 6.217 1.995a4.221 4.221 0 0 0 3.79-.609 4.23 4.23 0 0 0 1.74-3.422V21.61l3.488 1.035c1.896.563 3.184 2.192 3.184 4.032v85.728c0 2.872-3.031 4.91-5.994 4.031l-8.689-2.571c-20.423-6.059-37.212-6.059-57.633 0l-14.683 4.356-14.685-4.356c-20.421-6.059-37.21-6.059-57.631 0l-8.691 2.571c-2.95.879-5.994-1.159-5.994-4.031V26.678c0-1.84 1.288-3.47 3.184-4.032l3.56-1.054v78.129a4.236 4.236 0 0 0 5.528 4.029l8.008-2.577c18.85-6.06 34.352-6.06 53.191 0l13.551 4.356 9.1-2.925 4.451-1.431c18.847-6.06 34.352-6.06 53.189 0l1.819.582z" stroke="#2F3645" stroke-width="3" stroke-miterlimit="10"/><path d="m172.66 119.68-17.174-23.983a4.657 4.657 0 0 0-5.553-1.854l-4.154-6.506a27.94 27.94 0 1 0-5.383 3.44l4.156 6.503a4.659 4.659 0 0 0-.649 5.819l17.172 23.985a4.659 4.659 0 0 0 6.428 1.416l3.741-2.388a4.656 4.656 0 0 0 1.416-6.432zm-63.802-41.69a22.882 22.882 0 1 1 38.563-24.647 22.882 22.882 0 0 1-38.563 24.647z" fill="#2F3645"/><path d="M114.508 74.397a2.56 2.56 0 1 0 0-5.12 2.56 2.56 0 0 0 0 5.12zM124.951 48.324a16.92 16.92 0 0 1 5.711.096 2.615 2.615 0 0 1 2.127 2.385c.027.383-.031.767-.169 1.124a2.61 2.61 0 0 1-2.925 1.61 11.692 11.692 0 0 0-13.863 11.147 2.606 2.606 0 0 1-3.341 2.407 2.603 2.603 0 0 1-1.865-2.594c.264-7.956 6.2-14.926 14.325-16.175z" fill="#2F3645"/><g opacity=".7" stroke="#2F3645" stroke-width="3" stroke-miterlimit="10" stroke-linecap="round"><path d="M38.567 32.614c5.73 5.006 14.758 5.04 20.532.074l.088-.075M29.014 25.836v8.2M68.74 25.836v8.2"/></g></svg>
